X:129
T:Neili
T:Neil\'i
T:O Neil\'i
T:Nelly
R:polka
Z:id:hn-polka-129
M:2/4
L:1/8
K:D
ed cA | ed cA | Ac ef | ge d2 | ed cA | ed cA | Ac ef | ge d2 :|
|: ef ge | ed cd | ef ge | eA d2 | ef ge | ed cA | Ac ef | ge d2 :|
|: f2 fg | ed cA | f2 fg | eA d2 | f2 fg | ed cA | Ac ef | ge d2 :| 

